icons/media/stop-square-24.svg

<svg width="24" height="24" viewBox="0 0 24 24" fill="none" xmlns="http://www.w3.org/2000/svg">
<path fill-rule="evenodd" clip-rule="evenodd" d="M3.75 2C2.7835 2 2 2.7835 2 3.75V20.25C2 21.2165 2.7835 22 3.75 22H20.25C21.2165 22 22 21.2165 22 20.25V3.75C22 2.7835 21.2165 2 20.25 2H3.75ZM3.5 3.75C3.5 3.61193 3.61193 3.5 3.75 3.5H20.25C20.3881 3.5 20.5 3.61193 20.5 3.75V20.25C20.5 20.3881 20.3881 20.5 20.25 20.5H3.75C3.61193 20.5 3.5 20.3881 3.5 20.25V3.75Z" fill="black"/>
<path fill-rule="evenodd" clip-rule="evenodd" d="M9.5 7C8.11929 7 7 8.11929 7 9.5V14.5C7 15.8807 8.11929 17 9.5 17H14.5C15.8807 17 17 15.8807 17 14.5V9.5C17 8.11929 15.8807 7 14.5 7H9.5ZM8.5 9.5C8.5 8.94772 8.94771 8.5 9.5 8.5H14.5C15.0523 8.5 15.5 8.94772 15.5 9.5V14.5C15.5 15.0523 15.0523 15.5 14.5 15.5H9.5C8.94772 15.5 8.5 15.0523 8.5 14.5V9.5Z" fill="black"/>
</svg>

<svg xmlns="http://www.w3.org/2000/svg" width="24" height="24"><path fill-rule="evenodd" d="M3.75 2A1.75 1.75 0 002 3.75v16.5c0 .966.784 1.75 1.75 1.75h16.5A1.75 1.75 0 0022 20.25V3.75A1.75 1.75 0 0020.25 2H3.75zM3.5 3.75a.25.25 0 01.25-.25h16.5a.25.25 0 01.25.25v16.5a.25.25 0 01-.25.25H3.75a.25.25 0 01-.25-.25V3.75z"/><path fill-rule="evenodd" d="M9.5 7A2.5 2.5 0 007 9.5v5A2.5 2.5 0 009.5 17h5a2.5 2.5 0 002.5-2.5v-5A2.5 2.5 0 0014.5 7h-5zm-1 2.5a1 1 0 011-1h5a1 1 0 011 1v5a1 1 0 01-1 1h-5a1 1 0 01-1-1v-5z"/></svg>
